source/images/icons/clock.svg

<svg width="15" height="15" viewBox="0 0 15 15" fill="none" xmlns="http://www.w3.org/2000/svg">
<path fill-rule="evenodd" clip-rule="evenodd" d="M6.90751 0.0289501C4.40772 0.232172 2.18014 1.66051 0.946329 3.85121C-0.0899873 5.69123 -0.286582 7.94367 0.413027 9.96106C0.782421 11.0262 1.33504 11.9159 2.13936 12.7405C4.39295 15.0507 7.86975 15.6567 10.7773 14.2458C12.3463 13.4846 13.6499 12.142 14.3447 10.5721C15.4885 7.98752 15.1183 5.06258 13.3647 2.83059C12.9531 2.30657 12.1326 1.56534 11.5609 1.20101C10.9233 0.794699 10.1337 0.447154 9.43429 0.264961C8.9029 0.126518 8.54972 0.0674277 8.01089 0.026745C7.53189 -0.00943159 7.37547 -0.009112 6.90751 0.0289501ZM8.47463 1.44633C9.12182 1.56147 9.58511 1.70857 10.149 1.97798C12.5163 3.10888 13.8976 5.6074 13.593 8.20742C13.3255 10.4903 11.8033 12.4373 9.65797 13.2405C6.95733 14.2516 3.942 13.266 2.36003 10.8551C1.90307 10.1587 1.5986 9.37348 1.43249 8.46289C1.35496 8.03804 1.35496 6.97026 1.43249 6.54541C1.5553 5.87221 1.69842 5.42147 1.96886 4.85629C2.88374 2.94411 4.67835 1.66818 6.82755 1.40184C7.1696 1.35943 8.13242 1.38545 8.47463 1.44633ZM7.17935 2.81429C7.1002 2.85654 6.99226 2.95235 6.93949 3.0272L6.84354 3.16331L6.83395 5.38967C6.82698 7.00477 6.83446 7.65109 6.86129 7.74384C6.89187 7.84959 7.08689 8.06099 7.98962 8.96703C9.1522 10.1339 9.25925 10.2206 9.53733 10.2206C10.0314 10.2206 10.3557 9.71425 10.1513 9.26185C10.1037 9.15655 9.8301 8.86138 9.12924 8.15929L8.17221 7.20055L8.16351 5.18444L8.15481 3.16833L8.06737 3.04324C7.92751 2.84312 7.78033 2.76179 7.53464 2.74872C7.359 2.73938 7.29897 2.75044 7.17935 2.81429Z" fill="#668BD4"/>
</svg>

<svg viewBox="0 0 15 15" fill="none" xmlns="http://www.w3.org/2000/svg"><path fill-rule="evenodd" clip-rule="evenodd" d="M6.9.03a7.51 7.51 0 1 0 3.87 14.22 7.5 7.5 0 0 0-3.87-14.22Zm1.57 1.42a6.11 6.11 0 0 1 1.18 11.8 6.13 6.13 0 1 1-1.18-11.8Zm-1.3 1.36a.83.83 0 0 0-.23.22l-.1.13v2.23c-.01 1.61 0 2.26.02 2.35.03.11.23.32 1.13 1.23 1.16 1.16 1.27 1.25 1.55 1.25.5 0 .82-.5.61-.96a8.3 8.3 0 0 0-1.02-1.1l-.96-.96v-2.02l-.02-2.01-.08-.13a.62.62 0 0 0-.54-.3.63.63 0 0 0-.35.07Z" fill="#668BD4"/></svg>
